X:1
T:Title
%%score { 1 | ( 2 3 ) }
L:1/8
M:4/4
K:G
V:1 treble nm="Grand Piano"
V:2 bass 
V:3 bass 
V:1
 z4 z2[Q:1/4=100] [B,G]>[B,A] | [DB]>[DB] [DB]>[DB] [DB]2 [DA]>[DG] | A>G G>E G2 [DF]>[CE] | %3
 [B,D]2 [B,G]2 [B,G]2 [DB]2 | A6 G>A | B>B B>B B2 A>G | [EA]>[EG] [EG]>E [EG]2 [DF]>E | %7
 D2 G2 G2 A2 | [B,G]6 G>B | A>A A>A A2 d>c | B>A B>c d2 [Fd]>[Fc] | B2 B2 d2 B2 | [FA]6 B>c | %13
 d>d d>c B2 A>B | [Ec]>[Ec] [Ec]>[EB] [EA]2 [DEB]>[CEA] | G2 FG [DGB]2 [CFA]2 |[M:3/4] [G,B,G]6 |] %17
V:2
 z4 z2 [G,,G,]>[G,,G,] | [G,,G,]>[G,,G,] [G,,G,]>[G,,G,] [G,,G,]2 [B,,G,]>[B,,G,] | %2
 [C,E,C]>[C,E,C] [C,E,C]>[C,G,C] [C,E,C]2 [C,G,]>[C,G,] | [G,,G,]2 [G,,G,]2 [G,,G,]2 [G,,G,]2 | %4
 [D,F,D]6 [D,E,D]>[D,F,D] | [G,D]>[G,D] [G,D]>[G,D] [G,D]2 [G,CD]>[G,B,D] | %6
 [C,C]>[C,C] [C,C]>[C,C] [C,G,]2 [C,G,]>[C,G,C] | [D,G,B,]2 [D,G,B,]2 [D,G,B,]2 [D,F,C]2 | %8
 [G,,G,]6 [G,B,]>[G,D] | [F,A,D]>[F,A,D] [E,G,^C]>[E,G,C] [D,F,D]2 [D,F,D]>[F,A,D] | %10
 [G,D]>[F,A,D] [G,D]>[G,A,D] [G,B,D]2 [D,A,]>[D,D] | [G,DG]2 [G,DG]2 [B,DG]2 [G,DG]2 | %12
 [D,D]6 [G,DG]>[A,DG] | [B,DG]>[B,DG] [B,DG]>[A,DF] [G,DG]2 [G,D=F]>[G,DF] | %14
 [C,C]>[C,C] [C,C]>[C,C] [C,C]2 C,>C, | z2 [D,D]2 z4 |[M:3/4] G,,6 |] %17
V:3
 x8 | x8 | x8 | x8 | x8 | x8 | x8 | x8 | x8 | x8 | x8 | x8 | x8 | x8 | x8 | [D,B,D]2 A,B, D,2 D,2 | %16
[M:3/4] x6 |] %17

